X:1
T:Sonatina
T:Sonatina
T:Op. 36, No. 2
T:Muzio Clementi
T:Public Domain (PianoXML typeset)
T:Public Domain (PianoXML typeset)
T:Public Domain (PianoXML typeset)
T:Public Domain (PianoXML typeset)
T:Public Domain (PianoXML typeset)
C:Muzio Clementi
Z:Public Domain (PianoXML typeset)
%%score { 1 | ( 2 3 ) }
L:1/8
Q:1/4=104
M:2/4
K:G
V:1 treble nm="Piano" snm="Pno."
V:2 bass 
V:3 bass 
V:1
"^Allegretto"!p! .!3!d | (!2!d!1!B)(!1!B!5!g) | (!4!g3!p! f/)e/ | .d.d (!3!d/e/)d/c/ | B.d z g | %5
!<(! (!2!gd)(db)!<)! | b3!p! (!4!g/!2!e/ | .d).d (!3!d/^c/B/c/ | d2) z (!5!a/g/ | %9
 f/e/!1!d/!3!^c/ B/c/d/B/ | A) z z (!5!a/g/ | f/e/!1!d/!3!^c/!<(! B/c/d/B/ | %12
 A)!<)! z!f! (!5!d'/!3!a/f/d/ | e)e [^ca][ca] | ([eg]2 [df])!p!(!5!a/g/ | f/e/d/!3!^c/ B/c/d/B/ | %16
 !1!A/!3!G/F/G/) .!4!A(a/g/ |!<(! f/e/d/!3!^c/ B/c/d/B/ | A)!<)! z!f! (!1!d/!2!f/!3!a/d'/ | %19
 ^c'/b/a/!1!g/ !3!f/e/d/!2!^c/ | (!1!d/)!3!f/!5!a/f/ a/f/!4!g/e/ | d/f/a/f/ a/f/g/e/ | d2) z :: %23
!p! .d | (!2!dB)(B=f) | (!4!=f3!p! e/d/ | .c).c (!3!c/B/)A/B/ | .c.a (!3!e/=f/e/d/ | %28
 .c).a (!3!e/=f/e/d/ |!<(! !1!c/!4!d/!3!c/B/ A/B/c/d/!<)! | !5!e3!p! d/c/) | %31
!<(! (B/d/c/B/ !1!A/!4!c/B/A/!<)! |!f! !1!G/!3!A/!1!G/!2!F/ !1!G/A/B/^c/ | d) z (!3!F/G/)F/E/ | %34
 .D z!>(! (!3!G/A/G/F/ | .E) z (!3!A/B/A/!1!G/!>)! |!p! !2!F/!3!G/F/E/ F/!1!G/A/B/ | c) z z .d | %38
!<(! (!2!dB)(Bg)!<)! | (g3 f/)e/ |!>(! .d.d (!3!d/e/d/c/!>)! | B.d) z B |!<(! ((!2!BA))(Ae)!<)! | %43
 e3!>(! (!4!c/!2!A/ | G).G (!3!G/F/E/F/!>)! | G2) z!p! (!5!d/c/ | B/A/G/!3!F/ E/F/G/E/ | %47
 D) z z (!5!d/c/ |!<(! B/A/G/!3!F/ E/F/G/E/!<)! | .D)!f!(g/f/ e/!1!d/!3!c/!2!B/ | .A).A.[Fd].[Fd] | %51
 ([Ac]2 [GB])!p!(!5!b/a/ | g/f/!1!e/!2!^d/ !1!e/!3!f/g/e/ | !1!d/!3!c/B/c/ d)(!5!b/a/ | %54
!<(! g/f/!1!e/!2!^d/ !1!e/!3!f/g/!2!e/!<)! |!f! (d/)!2!g/!3!b/d'/ !4!c'/b/a/!1!g/ | %56
 !4!f/e/d/c/ !3!B/A/G/!2!F/ | (!1!G/)B/d/B/ d/B/!4!c/A/ | G/B/d/B/ d/B/c/A/ | G) z [Bdg] z | %60
 [Bdg]2 z z :|[K:C][M:3/4][Q:1/4=52]"^Allegretto""_dolce" (!1!E>!3!G c>AG>F | E>G c>AG>F | %63
 !1!E>!4!G!5!A>!3!F !1!D>!2!C | !1!B,>D C2) z2 | ([DF]4 [CE]2) | ([DF]4 [CE]2) | x6 | x6 || %69
 (!1!E>e !4!d>B!3!c>A | !2!^G>B !1!E>GA>c) | (D>d c>A!3!B>=G |!<(! !2!^F>d !1!G>d !2!A>d) | %73
 (!1!B>g!<)!!f! !1!c>g !2!d>g | !1!e>c' !2!^f>!4!a !3!g>)[Bd] | ([Bd]>[Ac] [GB]2 [^FA]2 | %76
!<(! (!3!G2) ^F2) =F2 |!p! (!2!E>!<)!!3!G) !5!c>!4!AG>F | (!1!E>!3!G) c>AG>F | %79
 E>!4!GA>!3!F !1!D>!2!C | (B,>D) C2 z2 | ([DF]4 [CE]2) | ([DF]4 [CE]2) | x6 | %84
 (!4!C>(!5!c) B>)A !1!G>!4!^F |!>(! ([DF]4 [CE]2)!>)! |!>(! ([DF]4 [CE]2)!>)! | x6 | x6 |] %89
[K:G][M:3/8][Q:1/4=120]"^Allegro" .G.G.G | (Adc | .B)(G/A/B/G/ | .A) z2 |!<(! .g.g.g!<)! | %94
!>(! (!5!a/g/f/e/!1!d/!4!c/!>)! | .B)(G/A/B/G/ | .A) z2 | z/ (!1!E/F/^G/!1!A/B/ | c/d/.e).e | %99
 z/ (!1!D/E/F/!1!G/A/ | B/c/.d).d | (!5!c/D/!4!B/D/!3!A/D/ | !5!B/D/!4!A/D/!3!G/D/ | %103
 !3!F/E/D/E/F/!1!G/ |!>(! A/B/d/c/B/A/!>)! |!p! .G).G.G | (Adc | .B)(G/A/B/G/ | .A) z2 | %109
!<(! .g.g.g!<)! |!>(! (!5!a/g/)f/e/d/c/!>)! | .B(G/A/B/G/ | .A) z2 | z/ (!1!E/F/^G/!1!A/B/ | %114
 c/d/.e).e | z/ (!1!D/E/F/G/A/ |!<(! B/!1!c/d/e/f/g/!<)! | f/e/d/c/!3!B/A/ | G2) (B/A/ | G2) z | %120
 (!5!d'>bd'/b/ | .g).g.g | (!5!b>gb/g/ | .e).e.e | (!4!f/!3!e/!2!^d/!1!e/f/g/ | b/a/g/f/e/!4!=d/ | %126
 ^c/B/!1!A/!4!G/F/E/ |!>(! D2 ^C)!>)! | z3 |!p! (!2!F2 A) | E2 A | G2 F | E z2 | (!2!F2 B/A/ | %134
 E2 B/A/ | G2 F | E) z2 |!f! z/ (!4!d/^c/d/e/d/ | !2!B/!4!d/!1!A/!4!d/G/d/) | z/ (!4!d/^c/d/e/d/ | %140
 !2!B/!4!d/!1!A/!5!d/!2!^G/!5!d/) | (!1!Ad!2!F) | TE3({DE)} | D z2 |"_dim." z3 |!p! (F2 B/A/ | %146
 E2 B/A/ | G2 F | E) z2 | (!2!F/!4!A/^G/A/B/A/ | !1!E/!4!A/^G/A/B/A/ | =G2 F | E) z2 | %153
!f! z/ (!4!d/e/)d/^c/d/ | !1!G/!4!d/!1!A/!4!d/!2!B/!4!d/ | z/ (!4!d/e/)d/!3!^c/!5!d/ | %156
 !2!^G/!5!d/!1!A/!5!d/!3!B/!5!d/ | (!1!A!5!d!2!F) | (!4!AGE/F/ | .D).D.D | %160
"_dim." .[^CE].[CE].[CE] | .[=CF].[CF].[CF] | !fermata!z3 | .G.G.G | (Adc | .B)(G/A/B/G/ | .A) z2 | %167
 .g.g.g |!f!!>(! (a/g/f/e/d/c/!>)! | .B)(G/A/B/G/ | .A) z2 | z/ (E/F/^G/A/B/ | c/d/.e).e | %173
 z/ (D/E/F/G/A/ | B/c/.d).d | (c/D/B/D/A/D/ | B/D/A/D/G/D/ | F/E/D/E/F/G/ |!>(! A/B/d/c/B/A/!>)! | %179
!p! .G).G.G | (Adc | .B)(G/A/B/G/ | .A) z2 |!<(! .g.g.g!<)! |!f!!>(! (a/g/)f/e/d/c/!>)! | %185
 .B(G/A/B/G/ | .A) z2 | z/ (E/F/^G/A/B/ | c/d/.e).e | z/ (D/E/F/!1!=G/A/ | %190
!<(! B/!1!c/d/e/f/g/!<)! |!f! f/!>(!e/d/c/!3!B/A/ | G2)!>)! (!3!B/A/ |!f! B/A/G/!2!F/!1!G/!2!A/ | %194
 B/!1!c/d/e/f/g/ | f/e/d/c/!3!B/A/ | G2) (B/A/ | G) z z | [Bdg] z2 | [B,DG]3 |] %200
V:2
 z | (!4!G,B,DB,) | G,B,DB, | !5!F,!3!A,DA, | !4!G,B,DB, | G,B,DB, | !5!G,B,E z | %7
 .!2![A,F].[A,F] .!1![A,E].[A,E] | (D,DD,D) | D,DD,D | (D,/E,/)F,/G,/ !1!A,/!3!B,/^C/D/ | D,DD,D | %12
 (D,/!3!F,/)A,/D/ z2 | [G,B,][G,B,]A,A, | D,DD,D | D,DD,D | D,DD,D | D,DD,D | (D,/F,/A,/D/) z2 | %19
 (!2!G,E,A,A,, | D,) z z .!3!A,, | .D, z z .A,, | D,.D,,.D,, :: z | z2 z ^G, | (^G,[B,D])([B,D]G, | %26
 .!3!A,) z .!2!E, z | .A,, z z (^G, | A,) z z (^G, | A,)(A,,!1!A,!3!=G, | !4!^F,[A,C])([A,C]F, | %31
 .G,) z .!2!D, z | [E,,E,]4 | .D,.D,, z2 | .D,.D,, z2 | .D,.D,, z2 | (D,D,,D,D,, | D,) z z2 | %38
 (!4!G,B,DB,) | G,B,DB, | (F,A,)DA, | !1!G,!2!D,!4!C,G,, | !3!C,!2!E,!1!A,E, | !4!C,!2!E,!1!A, z | %44
 .[D,B,].[D,B,] .[D,A,].[D,A,] | (G,,G,G,,G,) | G,,G,G,,G, | (G,,/A,,/B,,/C,/ !1!D,/!3!E,/F,/G,/) | %48
 (G,,G,G,,G, | .G,,)(B,,D,G, | .C,).C,.D,.D, | (G,,G,G,,G,) | G,,G,G,,G, | G,,G,G,,G, | %54
 (G,,G,G,,G, | G,,)(G,!2!D,!4!B,, | !2!C,)(!4!A,,D,D,, | !3!G,,) z z .!2!D, | .G, z z .D, | %59
 .G,,(G,D,B,, | G,,2) z z :|[K:C][M:3/4]"_legato" (C4 B,2 | C4 B,2 | C2 !4!F,4 | %64
 !1!G,2 !2!E,>)(G,E,>!3!C, | !4!B,,>!1!D, !5!G,,>B,,C,>E,) | (!3!B,,>!1!D,)!p! !5!G,,>!3!B,,C,>E, | %67
 (!2!A,>D !1!G,>!4!C !1!F,>B,) | ([F,B,D]4 [E,C]2) || (!4!^G,4 A,2 | D4 C2) | (!4!^F,4 =G,2 | %72
 C2 B,2 !5!^F,2) | (G,2 A,2 B,2 | C2 A,2 B,2) | (!2!C,2 !1!D,2 D,,2) | %76
 (!5!G,,>G, !5!A,,>G, !4!B,,>G,) | (!3!C,4 B,,2 | C,4 B,,2 | C,2 !1-2!F,4 | %80
 G,2 E,>)(G,!2!E,>!3!C, | !4!B,,>D,!p! G,,>!3!B,,C,>E,) | (!3!B,,>D,)!p! G,,>B,,C,>E, | %83
 (!2!A,>D) G,>!4!C F,>!3!B, | z6 | (!4!B,,>D,!p! !5!G,,>B,,C,>E,) | %86
 !4!B,,>D,!p! !5!G,,>!3!B,,C,>E, | (A,>D G,>C F,>B,) | (([F,B,D]4 [E,C]2)) |] %89
[K:G][M:3/8]"^dolce" (!4!G,B,D) | (!5!F,A,D) | G,B,D | F,A,D | G,B,D | F,A,D | G,B,D | (F,A,D | %97
 !2!C3) | z .C.C | B,3 | z .B,.B, | (!1!A,G,F, | !2!G,F,E, | D,3) | z3 | G,B,D | F,A,D | G,B,D | %108
 F,A,D | G,B,D | F,A,D | G,B,D | (F,A,D | C3) | z .C.C | B,3 | z .B,.B, |!f! (C,C)C | (D,D)D | %119
 (G,B,D) | (G,B,D) | G,B,D | G,B,D | G,^CE | G,^CE | F,A,D | (G,2 ^G,) | (A,,A,)A, | A,A,A, | %129
 (D.A,).A, | (^C.A,).A, | (D.A,).A, | (^C.A,).A, | (D.A,).A, | (^C.A,).A, | (D.A,).A, | %136
 (^C.A,).A, | [D,F,A,]3 | .!3!G,.A,.B, | [D,F,A,]3 | .!3!^G,.A,.B, | (A,,/A,/A,,/A,/A,,/A,/ | %142
 A,,/A,/A,,/A,/A,,/A,/ | D,F,A,) | A,A,A, | (D.A,).A, | (^CA,)A, | (DA,)A, | (^CA,)A, | (D.A,).A, | %150
 (^C.A,).A, | (D.A,).A, | (^C.A,).A, | [D,F,A,]3 | .B,.A,.G, | [D,F,A,]3 | .B,.A,.^G, | %157
 (A,,/A,/A,,/A,/A,,/A,/ | A,,/A,/A,,/A,/A,,/A,/ | D,3) | z3 | D,3 | !fermata!z3 | (G,B,D) | %164
 (F,A,D) | G,B,D | F,A,D | G,B,D | F,A,D | G,B,D | (F,A,D | C3) | z .C.C | B,3 | z .B,.B, | %175
 (A,G,F, | G,F,E, | D,3) | z3 | (G,B,D) | (F,A,D) | G,B,D | F,A,D | G,B,D | F,A,D | G,B,D | F,A,D | %187
 C3 | z .C.C | B,3 | z .B,.B, | (C,C)C | (D,D)D | (G,,B,,D, | G,B,G,) | (C,C)C | (D,D)D | %197
 (G,,G,D, | B,,D,B,, | G,,3) |] %200
V:3
 x | x4 | x4 | x4 | x4 | x4 | x4 | x4 | x4 | x4 | x4 | x4 | x4 | x4 | x4 | x4 | x4 | x4 | x4 | x4 | %20
 x4 | x4 | x3 :: x | x4 | x4 | x4 | x4 | x4 | x4 | x4 | x4 | x4 | x4 | x4 | x4 | x4 | x4 | x4 | %39
 x4 | x4 | x4 | x4 | x4 | x4 | x4 | x4 | x4 | x4 | x4 | x4 | x4 | x4 | x4 | x4 | x4 | x4 | x4 | %58
 x4 | x4 | x4 :|[K:C][M:3/4] x6 | x6 | x6 | x6 | x6 | x6 | !2!F,2 [G,,E,]2 [G,,D,]2 | %68
 (C,2 G,,2 C,,2) || x6 | x6 | x6 | x6 | x6 | x6 | x6 | x6 | x6 | x6 | x6 | x6 | x6 | x6 | %83
 !2!F,2 [G,,E,]2 ([G,,D,]2 | [A,,C,]2) x4 | x6 | x6 | F,,2 [G,,E,]2 [G,,D,]2 | (C,2 G,,2 C,,2) |] %89
[K:G][M:3/8] x3 | x3 | x3 | x3 | x3 | x3 | x3 | x3 | x3 | x3 | x3 | x3 | x3 | x3 | x3 | x3 | x3 | %106
 x3 | x3 | x3 | x3 | x3 | x3 | x3 | x3 | x3 | x3 | x3 | x3 | x3 | x3 | x3 | x3 | x3 | x3 | x3 | %125
 x3 | x3 | x3 | x3 | x3 | x3 | x3 | x3 | x3 | x3 | x3 | x3 | x3 | x3 | x3 | x3 | x3 | x3 | x3 | %144
 x3 | x3 | x3 | x3 | x3 | x3 | x3 | x3 | x3 | x3 | x3 | x3 | x3 | x3 | x3 | x3 | x3 | x3 | x3 | %163
 x3 | x3 | x3 | x3 | x3 | x3 | x3 | x3 | x3 | x3 | x3 | x3 | x3 | x3 | x3 | x3 | x3 | x3 | x3 | %182
 x3 | x3 | x3 | x3 | x3 | x3 | x3 | x3 | x3 | x3 | x3 | x3 | x3 | x3 | x3 | x3 | x3 | x3 |] %200

